X:722
T:Mrs. Moray of Abercairny
R:Reel
C:Nathaniel Gow
B:The Athole Collection
M:C|
L:1/8
K:D
A|F2DF ABAF|ABdF E2EA|FDDF ABAF|ABdF A2A:|
B|defd ecdB|AFdF E2Ee|defa efde|dBAF A2 AB|defd ecdB|
AFdF E2 EG|FAAd Bdef|dBAF D2D||

